X:1
T:Countess of Crawford, The (Dunecht House)
T:Countess of Crawford, The (Dunecht House)
T:Peter Milne
C:Peter Milne
L:1/8
M:4/4
K:A
V:1 treble 
V:1
 E | A>c B/A/G/F/ E<C(C>B,) | (A,>B,)C>D E3 G | A>c B/A/G/F/ E<CC>E | A<EA>B c3 d | e>cA<E F<AE<C | %6
 (A,>B,)(C>D) E3 G | (3Ace (3cAE (3FAd (3cAE | (3DFA (3GBe c<A A || e | (d/c/).B/.A/ (d>B) e<cf>d | %11
 e<c(a>c) (d/c/).B/.A/ G>e | (d/c/).B/.A/ (d>B) e<cf>d | g>eb>g a3 e | (3faf (3edc (3dfd (3cBA | %15
 (d>B) (d/c/).B/.A/ G<BG<E | C<EE<A D<FF<A | (3GAB (3GBe c<A A || %18

